X: 8
T: O'Sullivan's March
R: jig
M: 6/8
L: 1/8
K: Cdor
K: BbMaj
|: F |B2 c d2 f | gfd c2 F | B2 c d2 B | dcc cdc |
B2 c d2 f | gfd c2 F | B2 c d2 B |[1 cBB B2 :|[2 cBB B ||
|: df |g3 g3 | gag gfd | f3 ff/g/a | gfd fga |
bd'b gab | fdB c2 F | B2 c d2 B |[1 cBB B :|[2 cBB B2 |]


Tune 2204	Setting 2204

